;FLAVOR:UltiGCode
;TIME:718
;MATERIAL:1531
;MATERIAL2:0
;NOZZLE_DIAMETER:0.4
;MINX:97.673
;MINY:96.307
;MINZ:0.27
;MAXX:128.06
;MAXY:126.693
;MAXZ:31.77
;Generated with Cura_SteamEngine 4.6.1
M82 ;absolute extrusion mode

G92 E0
G92 E0
G10
;LAYER_COUNT:106
;LAYER:0
M107
G0 F4320 X101.912 Y100.967 Z0.27
;TYPE:SKIRT
G11
G1 F1800 X102.333 Y100.546 E0.05626
G1 X102.825 Y100.093 E0.11946
G1 X103.29 Y99.701 E0.17694
G1 X103.781 Y99.319 E0.23573
G1 X104.267 Y98.971 E0.29221
G1 X104.81 Y98.616 E0.35352
G1 X105.335 Y98.302 E0.41133
G1 X105.917 Y97.986 E0.47391
G1 X106.467 Y97.717 E0.53177
G1 X107.062 Y97.456 E0.59317
G1 X107.615 Y97.24 E0.64927
G1 X108.235 Y97.027 E0.71122
G1 X108.82 Y96.853 E0.7689
G1 X109.439 Y96.696 E0.82925
G1 X110.041 Y96.569 E0.88739
G1 X110.69 Y96.46 E0.94958
G1 X111.274 Y96.387 E1.0052
G1 X111.917 Y96.333 E1.06617
G1 X112.529 Y96.307 E1.12406
G1 X113.184 Y96.307 E1.18596
G1 X113.797 Y96.332 E1.24393
G1 X114.454 Y96.386 E1.30623
G1 X115.037 Y96.459 E1.36175
G1 X115.672 Y96.565 E1.42259
G1 X116.274 Y96.691 E1.48071
G1 X116.898 Y96.848 E1.54152
G1 X117.482 Y97.021 E1.59908
G1 X118.106 Y97.235 E1.66142
G1 X118.66 Y97.451 E1.71761
G1 X119.239 Y97.704 E1.77732
G1 X119.795 Y97.974 E1.83573
G1 X120.393 Y98.297 E1.89996
G1 X120.907 Y98.604 E1.95653
G1 X121.451 Y98.96 E2.01797
G1 X121.943 Y99.312 E2.07514
G1 X122.428 Y99.689 E2.13319
G1 X122.892 Y100.079 E2.19047
G1 X123.4 Y100.545 E2.25561
G1 X123.827 Y100.973 E2.31275
G1 X124.267 Y101.452 E2.37421
G1 X124.66 Y101.917 E2.43174
G1 X125.041 Y102.405 E2.49025
G1 X125.393 Y102.895 E2.54727
G1 X125.76 Y103.456 E2.61062
G1 X126.066 Y103.969 E2.66706
G1 X126.377 Y104.542 E2.72867
G1 X126.65 Y105.1 E2.78738
G1 X126.912 Y105.696 E2.8489
G1 X127.126 Y106.244 E2.9045
G1 X127.335 Y106.854 E2.96543
G1 X127.511 Y107.443 E3.02352
G1 X127.673 Y108.082 E3.08582
G1 X127.799 Y108.683 E3.14385
G1 X127.904 Y109.307 E3.20365
G1 X127.978 Y109.89 E3.25918
G1 X128.034 Y110.548 E3.32159
G1 X128.06 Y111.161 E3.37957
G1 X128.06 Y111.816 E3.44146
G1 X128.035 Y112.428 E3.49935
G1 X127.98 Y113.094 E3.5625
G1 X127.906 Y113.68 E3.61832
G1 X127.803 Y114.297 E3.67743
G1 X127.678 Y114.898 E3.73544
G1 X127.516 Y115.539 E3.79792
G1 X127.342 Y116.124 E3.85559
G1 X127.135 Y116.73 E3.91611
G1 X126.921 Y117.281 E3.97197
G1 X126.664 Y117.87 E4.0327
G1 X126.393 Y118.428 E4.09132
G1 X126.07 Y119.026 E4.15554
G1 X125.763 Y119.54 E4.21212
G1 X125.407 Y120.084 E4.27356
G1 X125.055 Y120.576 E4.33073
G1 X124.671 Y121.07 E4.38986
G1 X124.279 Y121.535 E4.44733
G1 X123.833 Y122.021 E4.50966
G1 X123.406 Y122.449 E4.5668
G1 X122.906 Y122.909 E4.631
G1 X122.442 Y123.3 E4.68834
G1 X121.958 Y123.676 E4.74626
G1 X121.466 Y124.029 E4.80348
G1 X120.913 Y124.392 E4.86599
G1 X120.399 Y124.699 E4.92257
G1 X119.806 Y125.019 E4.98625
G1 X119.251 Y125.289 E5.04457
G1 X118.683 Y125.539 E5.10322
G1 X118.13 Y125.756 E5.15936
G1 X117.498 Y125.973 E5.2225
G1 X116.913 Y126.147 E5.28018
G1 X116.294 Y126.304 E5.34053
G1 X115.692 Y126.431 E5.39867
G1 X115.044 Y126.54 E5.46076
G1 X114.461 Y126.613 E5.51629
G1 X113.817 Y126.667 E5.57736
G1 X113.205 Y126.693 E5.63525
G1 X112.55 Y126.693 E5.69714
G1 X111.937 Y126.668 E5.75512
G1 X111.281 Y126.614 E5.81732
G1 X110.697 Y126.541 E5.87294
G1 X110.061 Y126.435 E5.93387
G1 X109.459 Y126.309 E5.99199
G1 X108.835 Y126.152 E6.0528
G1 X108.251 Y125.979 E6.11036
G1 X107.62 Y125.762 E6.17341
G1 X107.065 Y125.545 E6.22973
G1 X106.489 Y125.293 E6.28914
G1 X105.94 Y125.026 E6.34683
G1 X105.347 Y124.706 E6.41051
G1 X104.821 Y124.392 E6.4684
G1 X104.28 Y124.037 E6.52955
G1 X103.793 Y123.689 E6.58611
G1 X103.297 Y123.304 E6.64545
G1 X102.827 Y122.908 E6.70352
G1 X102.333 Y122.454 E6.76693
G1 X101.912 Y122.033 E6.82319
G1 X101.46 Y121.542 E6.88626
G1 X101.067 Y121.076 E6.94386
G1 X100.687 Y120.587 E7.00239
G1 X100.335 Y120.096 E7.05948
G1 X99.963 Y119.527 E7.12372
G1 X99.658 Y119.013 E7.1802
G1 X99.359 Y118.46 E7.23961
G1 X99.086 Y117.903 E7.29823
G1 X98.822 Y117.304 E7.36009
G1 X98.607 Y116.754 E7.41589
G1 X98.393 Y116.129 E7.47832
G1 X98.219 Y115.543 E7.53609
G1 X98.063 Y114.929 E7.59595
G1 X97.936 Y114.328 E7.654
G1 X97.827 Y113.677 E7.71638
G1 X97.754 Y113.093 E7.772
G1 X97.7 Y112.451 E7.83288
G1 X97.674 Y111.84 E7.89067
G1 X97.673 Y111.185 E7.95257
G1 X97.698 Y110.57 E8.01073
G1 X97.753 Y109.912 E8.07313
G1 X97.826 Y109.329 E8.12866
G1 X97.933 Y108.691 E8.18979
G1 X98.059 Y108.09 E8.24782
G1 X98.215 Y107.471 E8.30814
G1 X98.389 Y106.883 E8.36609
G1 X98.604 Y106.253 E8.429
G1 X98.818 Y105.705 E8.48459
G1 X99.073 Y105.124 E8.54455
G1 X99.346 Y104.563 E8.60351
G1 X99.653 Y103.992 E8.66477
G1 X99.956 Y103.481 E8.72092
G1 X100.332 Y102.907 E8.78576
G1 X100.685 Y102.415 E8.84298
G1 X101.062 Y101.931 E8.90096
G1 X101.459 Y101.46 E8.95917
G1 X101.912 Y100.967 E9.02244
G0 F4320 X102.159 Y101.214
G1 F1800 X102.58 Y100.793 E9.0787
G1 X103.051 Y100.361 E9.1391
G1 X103.516 Y99.969 E9.19657
G1 X103.985 Y99.604 E9.25273
G1 X104.471 Y99.256 E9.30922
G1 X104.989 Y98.916 E9.36777
G1 X105.514 Y98.602 E9.42558
G1 X106.071 Y98.3 E9.48546
G1 X106.621 Y98.031 E9.54332
G1 X107.189 Y97.782 E9.60193
G1 X107.742 Y97.566 E9.65803
G1 X108.335 Y97.362 E9.71729
G1 X108.92 Y97.188 E9.77497
G1 X109.512 Y97.038 E9.83268
G1 X110.114 Y96.911 E9.89082
G1 X110.734 Y96.807 E9.95023
G1 X111.318 Y96.734 E10.00585
G1 X111.932 Y96.683 E10.06407
G1 X112.544 Y96.657 E10.12195
G1 X113.17 Y96.656 E10.18111
G1 X113.783 Y96.681 E10.23909
G1 X114.411 Y96.733 E10.29864
G1 X114.994 Y96.806 E10.35416
G1 X115.601 Y96.908 E10.41233
G1 X116.203 Y97.034 E10.47045
G1 X116.798 Y97.184 E10.52844
G1 X117.382 Y97.357 E10.58599
G1 X117.979 Y97.561 E10.64561
G1 X118.533 Y97.777 E10.7018
G1 X119.086 Y98.019 E10.75885
G1 X119.642 Y98.289 E10.81726
G1 X120.214 Y98.598 E10.87869
G1 X120.728 Y98.905 E10.93527
G1 X121.248 Y99.245 E10.99398
G1 X121.74 Y99.597 E11.05115
G1 X122.203 Y99.957 E11.10657
G1 X122.667 Y100.347 E11.16385
G1 X123.152 Y100.792 E11.22606
G1 X123.579 Y101.22 E11.28319
G1 X123.999 Y101.678 E11.34191
G1 X124.392 Y102.143 E11.39945
G1 X124.757 Y102.61 E11.45546
G1 X125.109 Y103.1 E11.51247
G1 X125.46 Y103.635 E11.57294
G1 X125.766 Y104.148 E11.62939
G1 X126.062 Y104.696 E11.68825
G1 X126.335 Y105.254 E11.74695
G1 X126.585 Y105.824 E11.80577
G1 X126.799 Y106.372 E11.86136
G1 X127 Y106.955 E11.91964
G1 X127.176 Y107.544 E11.97773
G1 X127.331 Y108.154 E12.03721
G1 X127.457 Y108.755 E12.09524
G1 X127.557 Y109.351 E12.15235
G1 X127.631 Y109.934 E12.20788
G1 X127.684 Y110.563 E12.26753
G1 X127.71 Y111.176 E12.32551
G1 X127.711 Y111.802 E12.38467
G1 X127.686 Y112.414 E12.44255
G1 X127.633 Y113.05 E12.50286
G1 X127.559 Y113.636 E12.55868
G1 X127.46 Y114.225 E12.61512
G1 X127.335 Y114.826 E12.67313
G1 X127.181 Y115.439 E12.73286
G1 X127.007 Y116.024 E12.79054
G1 X126.809 Y116.603 E12.84836
G1 X126.595 Y117.154 E12.90422
G1 X126.349 Y117.717 E12.96228
G1 X126.078 Y118.275 E13.0209
G1 X125.769 Y118.847 E13.08234
G1 X125.462 Y119.361 E13.13892
G1 X125.122 Y119.881 E13.19763
G1 X124.77 Y120.373 E13.2548
G1 X124.403 Y120.844 E13.31122
G1 X124.011 Y121.309 E13.3687
G1 X123.585 Y121.774 E13.42829
G1 X123.158 Y122.202 E13.48542
G1 X122.68 Y122.641 E13.54675
G1 X122.216 Y123.032 E13.60409
G1 X121.754 Y123.392 E13.65944
G1 X121.262 Y123.745 E13.71667
G1 X120.734 Y124.091 E13.77632
G1 X120.22 Y124.398 E13.8329
G1 X119.653 Y124.705 E13.89383
G1 X119.098 Y124.975 E13.95215
G1 X118.555 Y125.213 E14.00818
G1 X118.002 Y125.43 E14.06432
G1 X117.398 Y125.638 E14.12469
G1 X116.813 Y125.812 E14.18236
G1 X116.221 Y125.962 E14.24007
G1 X115.619 Y126.089 E14.29822
G1 X115.001 Y126.193 E14.35744
G1 X114.418 Y126.266 E14.41296
G1 X113.802 Y126.317 E14.47137
G1 X113.19 Y126.343 E14.52926
G1 X112.564 Y126.344 E14.58842
G1 X111.951 Y126.319 E14.64639
G1 X111.325 Y126.267 E14.70575
G1 X110.741 Y126.194 E14.76137
G1 X110.132 Y126.092 E14.81972
G1 X109.53 Y125.966 E14.87784
G1 X108.935 Y125.816 E14.93583
G1 X108.351 Y125.643 E14.99339
G1 X107.748 Y125.436 E15.05364
G1 X107.193 Y125.219 E15.10995
G1 X106.642 Y124.978 E15.16678
G1 X106.093 Y124.711 E15.22447
G1 X105.527 Y124.405 E15.28528
G1 X105.001 Y124.091 E15.34317
G1 X104.483 Y123.752 E15.40167
G1 X103.996 Y123.404 E15.45823
G1 X103.522 Y123.037 E15.51488
G1 X103.052 Y122.641 E15.57296
G1 X102.58 Y122.207 E15.63356
G1 X102.159 Y121.786 E15.68982
G1 X101.728 Y121.316 E15.75008
G1 X101.335 Y120.85 E15.80769
G1 X100.971 Y120.383 E15.86364
G1 X100.619 Y119.892 E15.92073
G1 X100.264 Y119.348 E15.98212
G1 X99.959 Y118.834 E16.0386
G1 X99.673 Y118.306 E16.09535
G1 X99.4 Y117.749 E16.15396
G1 X99.148 Y117.177 E16.21303
G1 X98.933 Y116.627 E16.26884
G1 X98.728 Y116.029 E16.32858
G1 X98.554 Y115.443 E16.38634
G1 X98.406 Y114.857 E16.44346
G1 X98.279 Y114.256 E16.50151
G1 X98.174 Y113.633 E16.56121
G1 X98.101 Y113.049 E16.61683
G1 X98.05 Y112.436 E16.67496
G1 X98.024 Y111.825 E16.73275
G1 X98.023 Y111.199 E16.79191
G1 X98.048 Y110.584 E16.85007
G1 X98.1 Y109.955 E16.90971
G1 X98.173 Y109.372 E16.96524
G1 X98.275 Y108.763 E17.02359
G1 X98.401 Y108.162 E17.08162
G1 X98.55 Y107.571 E17.13922
G1 X98.724 Y106.983 E17.19716
G1 X98.931 Y106.381 E17.25732
G1 X99.145 Y105.833 E17.31292
G1 X99.388 Y105.277 E17.37026
G1 X99.661 Y104.716 E17.42922
G1 X99.954 Y104.171 E17.48769
G1 X100.257 Y103.66 E17.54383
G1 X100.616 Y103.111 E17.60582
G1 X100.969 Y102.619 E17.66304
G1 X101.329 Y102.156 E17.71847
G1 X101.726 Y101.685 E17.77668
G1 X102.159 Y101.214 E17.83714
G0 F4320 X102.407 Y101.462
G1 F1800 X102.828 Y101.041 E17.8934
G1 X103.276 Y100.628 E17.95098
G1 X103.741 Y100.236 E18.00846
G1 X104.189 Y99.888 E18.06206
G1 X104.675 Y99.54 E18.11855
G1 X105.169 Y99.216 E18.17438
G1 X105.694 Y98.902 E18.23219
G1 X106.225 Y98.615 E18.28923
G1 X106.775 Y98.346 E18.34709
G1 X107.317 Y98.108 E18.40303
G1 X107.87 Y97.892 E18.45913
G1 X108.434 Y97.698 E18.51549
G1 X109.019 Y97.524 E18.57317
G1 X109.584 Y97.381 E18.62824
G1 X110.186 Y97.254 E18.68639
G1 X110.777 Y97.154 E18.74303
G1 X111.361 Y97.081 E18.79865
G1 X111.946 Y97.032 E18.85412
G1 X112.558 Y97.006 E18.91201
G1 X113.155 Y97.006 E18.96842
G1 X113.768 Y97.031 E19.0264
G1 X114.367 Y97.081 E19.0832
G1 X114.95 Y97.154 E19.13873
G1 X115.529 Y97.25 E19.19419
G1 X116.131 Y97.376 E19.25231
G1 X116.699 Y97.52 E19.30769
G1 X117.283 Y97.693 E19.36524
G1 X117.851 Y97.887 E19.42196
G1 X118.405 Y98.103 E19.47816
G1 X118.933 Y98.334 E19.53262
G1 X119.489 Y98.604 E19.59103
G1 X120.034 Y98.898 E19.64955
G1 X120.548 Y99.205 E19.70612
G1 X121.044 Y99.53 E19.76216
G1 X121.536 Y99.882 E19.81933
G1 X121.978 Y100.224 E19.87214
G1 X122.442 Y100.614 E19.92942
G1 X122.904 Y101.039 E19.98874
G1 X123.331 Y101.467 E20.04588
G1 X123.732 Y101.904 E20.10192
G1 X124.125 Y102.369 E20.15946
G1 X124.472 Y102.814 E20.21279
G1 X124.824 Y103.304 E20.2698
G1 X125.159 Y103.814 E20.32746
G1 X125.465 Y104.327 E20.38391
G1 X125.748 Y104.85 E20.44011
G1 X126.021 Y105.408 E20.49881
G1 X126.259 Y105.951 E20.55484
G1 X126.473 Y106.499 E20.61043
G1 X126.665 Y107.055 E20.66602
G1 X126.841 Y107.644 E20.72411
G1 X126.988 Y108.226 E20.78083
G1 X127.114 Y108.827 E20.83886
G1 X127.21 Y109.396 E20.89339
G1 X127.284 Y109.979 E20.94893
G1 X127.335 Y110.578 E21.00574
G1 X127.361 Y111.191 E21.06372
G1 X127.361 Y111.788 E21.12014
G1 X127.336 Y112.4 E21.17802
G1 X127.285 Y113.006 E21.23549
G1 X127.211 Y113.592 E21.29131
G1 X127.118 Y114.154 E21.34514
G1 X126.993 Y114.755 E21.40315
G1 X126.845 Y115.34 E21.46017
G1 X126.671 Y115.925 E21.51785
G1 X126.482 Y116.477 E21.57298
G1 X126.268 Y117.028 E21.62884
G1 X126.034 Y117.565 E21.6842
G1 X125.763 Y118.123 E21.74282
G1 X125.469 Y118.667 E21.80125
G1 X125.162 Y119.181 E21.85783
G1 X124.837 Y119.677 E21.91387
G1 X124.485 Y120.169 E21.97104
G1 X124.136 Y120.619 E22.02485
G1 X123.744 Y121.084 E22.08233
G1 X123.337 Y121.527 E22.13918
G1 X122.91 Y121.955 E22.19631
G1 X122.454 Y122.374 E22.25483
G1 X121.99 Y122.765 E22.31217
G1 X121.55 Y123.108 E22.36489
G1 X121.058 Y123.461 E22.42211
G1 X120.554 Y123.791 E22.47904
G1 X120.04 Y124.098 E22.53562
G1 X119.5 Y124.39 E22.59363
G1 X118.945 Y124.66 E22.65196
G1 X118.427 Y124.887 E22.7054
G1 X117.874 Y125.104 E22.76154
G1 X117.299 Y125.302 E22.81901
G1 X116.714 Y125.476 E22.87669
G1 X116.149 Y125.619 E22.93176
G1 X115.547 Y125.746 E22.9899
G1 X114.957 Y125.845 E23.04644
G1 X114.374 Y125.918 E23.10196
G1 X113.788 Y125.968 E23.15754
G1 X113.176 Y125.994 E23.21543
G1 X112.579 Y125.994 E23.27184
G1 X111.966 Y125.969 E23.32982
G1 X111.368 Y125.92 E23.38652
G1 X110.784 Y125.847 E23.44214
G1 X110.204 Y125.75 E23.49771
G1 X109.602 Y125.624 E23.55583
G1 X109.034 Y125.48 E23.6112
G1 X108.45 Y125.307 E23.66876
G1 X107.875 Y125.11 E23.7262
G1 X107.32 Y124.893 E23.78251
G1 X106.795 Y124.663 E23.83668
G1 X106.246 Y124.396 E23.89437
G1 X105.706 Y124.105 E23.95234
G1 X105.18 Y123.791 E24.01023
G1 X104.686 Y123.468 E24.066
G1 X104.199 Y123.12 E24.12257
G1 X103.748 Y122.769 E24.17657
G1 X103.278 Y122.373 E24.23465
G1 X102.828 Y121.959 E24.29244
G1 X102.407 Y121.538 E24.3487
G1 X101.995 Y121.091 E24.40615
G1 X101.602 Y120.625 E24.46375
G1 X101.256 Y120.179 E24.5171
G1 X100.904 Y119.688 E24.57419
G1 X100.565 Y119.169 E24.63277
G1 X100.26 Y118.655 E24.68925
G1 X99.987 Y118.152 E24.74333
G1 X99.714 Y117.595 E24.80195
G1 X99.474 Y117.049 E24.85831
G1 X99.259 Y116.499 E24.91412
G1 X99.064 Y115.929 E24.97105
G1 X98.89 Y115.343 E25.02881
G1 X98.748 Y114.784 E25.08332
G1 X98.621 Y114.183 E25.14137
G1 X98.521 Y113.59 E25.1982
G1 X98.448 Y113.006 E25.25381
G1 X98.399 Y112.421 E25.30929
G1 X98.373 Y111.81 E25.36708
G1 X98.373 Y111.214 E25.4234
G1 X98.398 Y110.599 E25.48157
G1 X98.448 Y109.999 E25.53847
G1 X98.521 Y109.416 E25.59399
G1 X98.618 Y108.835 E25.64965
G1 X98.744 Y108.234 E25.70768
G1 X98.886 Y107.67 E25.76264
G1 X99.06 Y107.082 E25.82059
G1 X99.257 Y106.508 E25.87794
G1 X99.471 Y105.96 E25.93354
G1 X99.702 Y105.43 E25.98817
G1 X99.975 Y104.869 E26.04713
G1 X100.255 Y104.35 E26.10286
G1 X100.558 Y103.839 E26.159
G1 X100.9 Y103.315 E26.21813
G1 X101.253 Y102.823 E26.27535
G1 X101.597 Y102.382 E26.32821
G1 X101.994 Y101.911 E26.38642
G1 X102.407 Y101.462 E26.44407
G0 F4320 X102.654 Y101.709
G1 F1800 X103.075 Y101.288 E26.50033
G1 X103.502 Y100.896 E26.55511
G1 X103.967 Y100.504 E26.61258
G1 X104.393 Y100.173 E26.66356
G1 X104.879 Y99.825 E26.72005
G1 X105.349 Y99.517 E26.77315
G1 X105.874 Y99.203 E26.83096
G1 X106.378 Y98.929 E26.88517
G1 X106.928 Y98.66 E26.94303
G1 X107.444 Y98.434 E26.99627
G1 X107.997 Y98.218 E27.05237
G1 X108.534 Y98.033 E27.10604
G1 X109.119 Y97.859 E27.16372
G1 X109.656 Y97.723 E27.21607
G1 X110.258 Y97.596 E27.27421
G1 X110.82 Y97.502 E27.32806
G1 X111.404 Y97.429 E27.38367
G1 X111.961 Y97.382 E27.4365
G1 X112.573 Y97.356 E27.49438
G1 X113.141 Y97.356 E27.54806
G1 X113.754 Y97.381 E27.60603
G1 X114.324 Y97.428 E27.66008
G1 X114.907 Y97.501 E27.71561
G1 X115.457 Y97.593 E27.7683
G1 X116.059 Y97.719 E27.82643
G1 X116.6 Y97.855 E27.87914
G1 X117.184 Y98.028 E27.9367
G1 X117.724 Y98.213 E27.99064
G1 X118.278 Y98.429 E28.04683
G1 X118.78 Y98.649 E28.09863
G1 X119.336 Y98.919 E28.15704
G1 X119.855 Y99.199 E28.21276
G1 X120.369 Y99.506 E28.26934
G1 X120.84 Y99.814 E28.32252
G1 X121.332 Y100.166 E28.37969
G1 X121.752 Y100.492 E28.42993
G1 X122.216 Y100.882 E28.48721
G1 X122.657 Y101.287 E28.5438
G1 X123.084 Y101.715 E28.60093
G1 X123.465 Y102.129 E28.6541
G1 X123.858 Y102.594 E28.71163
G1 X124.188 Y103.018 E28.76241
G1 X124.54 Y103.508 E28.81942
G1 X124.858 Y103.994 E28.8743
G1 X125.164 Y104.507 E28.93075
G1 X125.434 Y105.004 E28.9842
G1 X125.707 Y105.562 E29.04291
G1 X125.933 Y106.078 E29.09614
G1 X126.147 Y106.626 E29.15173
G1 X126.329 Y107.155 E29.2046
G1 X126.505 Y107.744 E29.26269
G1 X126.646 Y108.298 E29.31671
G1 X126.772 Y108.899 E29.37474
G1 X126.863 Y109.44 E29.42659
G1 X126.937 Y110.023 E29.48212
G1 X126.985 Y110.593 E29.53618
G1 X127.011 Y111.206 E29.59416
G1 X127.011 Y111.774 E29.64783
G1 X126.986 Y112.386 E29.70572
G1 X126.938 Y112.962 E29.76034
G1 X126.864 Y113.548 E29.81615
G1 X126.775 Y114.083 E29.86741
G1 X126.65 Y114.684 E29.92542
G1 X126.51 Y115.24 E29.9796
